public/assets/icons/twitch_icon.svg

<svg xmlns="http://www.w3.org/2000/svg" width="24" height="24" viewBox="0 0 24 24"><path d="M2.149 0l-1.612 4.119v16.836h5.731v3.045h3.224l3.045-3.045h4.657l6.269-6.269v-14.686h-21.314zm19.164 13.612l-3.582 3.582h-5.731l-3.045 3.045v-3.045h-4.836v-15.045h17.194v11.463zm-3.582-7.343v6.262h-2.149v-6.262h2.149zm-5.731 0v6.262h-2.149v-6.262h2.149z" fill-rule="evenodd" fill="white" clip-rule="evenodd"/></svg>

<svg xmlns="http://www.w3.org/2000/svg" width="24" height="24"><path d="M2.149 0L.537 4.119v16.836h5.731V24h3.224l3.045-3.045h4.657l6.269-6.269V0H2.149zm19.164 13.612l-3.582 3.582H12l-3.045 3.045v-3.045H4.119V2.149h17.194v11.463zm-3.582-7.343v6.262h-2.149V6.269h2.149zm-5.731 0v6.262H9.851V6.269H12z" fill-rule="evenodd" fill="#fff"/></svg>
